X: 26592
T: Mick Moloney's Rambles
R: reel
M: 4/4
K: Adorian
(3EFG AB cBAG|EG3 EGDG|(3EFG AB cBce|dBGA BA3|
(3EFG AB cBAG|EG3 EGDG|(3EFG AB cBce|dBGA BA3|
a3ed Bdef|g2dc BG3|aged Bdef|gedB ABcd|
a3ed Bdef|gedc BG3|A3B cBce|dBGA BA3|

